docs/images/banner.svg

<?xml version="1.0" encoding="UTF-8" standalone="no"?>
<!-- Created with Inkscape (http://www.inkscape.org/) -->

<svg
   width="107.5643mm"
   height="33.072918mm"
   viewBox="0 0 107.5643 33.072918"
   version="1.1"
   id="svg1"
   xml:space="preserve"
   inkscape:version="1.3.1 (9b9bdc1480, 2023-11-25, custom)"
   sodipodi:docname="screenly-extension-logo.svg"
   xmlns:inkscape="http://www.inkscape.org/namespaces/inkscape"
   xmlns:sodipodi="http://sodipodi.sourceforge.net/DTD/sodipodi-0.dtd"
   xmlns="http://www.w3.org/2000/svg"
   xmlns:svg="http://www.w3.org/2000/svg"><sodipodi:namedview
     id="namedview1"
     pagecolor="#ffffff"
     bordercolor="#000000"
     borderopacity="0.25"
     inkscape:showpageshadow="2"
     inkscape:pageopacity="0.0"
     inkscape:pagecheckerboard="0"
     inkscape:deskcolor="#d1d1d1"
     inkscape:document-units="mm"
     showgrid="true"
     inkscape:zoom="1.5785915"
     inkscape:cx="288.54837"
     inkscape:cy="96.28837"
     inkscape:window-width="1920"
     inkscape:window-height="1043"
     inkscape:window-x="0"
     inkscape:window-y="0"
     inkscape:window-maximized="1"
     inkscape:current-layer="layer1"><inkscape:grid
       id="grid1"
       units="mm"
       originx="-30.130013"
       originy="-30.685042"
       spacingx="0.99999998"
       spacingy="1"
       empcolor="#0099e5"
       empopacity="0.30196078"
       color="#0099e5"
       opacity="0.14901961"
       empspacing="5"
       dotted="false"
       gridanglex="30"
       gridanglez="30"
       visible="true" /></sodipodi:namedview><defs
     id="defs1"><linearGradient
       id="paint0_linear_1055_114"
       x1="32.5173"
       y1="31.586"
       x2="90.304298"
       y2="39.676998"
       gradientUnits="userSpaceOnUse"><stop
         stop-color="#972EFF"
         id="stop1" /><stop
         offset="1"
         stop-color="#3153FC"
         id="stop2" /></linearGradient></defs><g
     inkscape:label="Layer 1"
     inkscape:groupmode="layer"
     id="layer1"
     transform="translate(-30.130012,-30.685042)"><g
       style="fill:none"
       id="g1"
       transform="matrix(0.26458333,0,0,0.26458333,61.400119,33.926951)"><path
         fill-rule="evenodd"
         clip-rule="evenodd"
         d="M 22.3552,48.4369 C 14.773,48.4369 9.74402,44.1816 9.27981,37.8374 L 0.537109,37.6826 c 0.232107,10.677 8.665331,18.2591 21.740691,18.2591 11.6827,0 20.0386,-6.8858 20.0386,-16.4796 0.0774,-10.6769 -8.6653,-13.5396 -17.6401,-15.1643 -8.5106,-1.47 -14.0812,-2.6306 -14.0812,-8.2011 0,-5.1064 4.2553,-7.81431 10.3674,-7.81431 6.499,0 11.0638,2.50161 11.6828,7.99481 h 4.3713 4.3714 C 40.9237,6.52869 32.3358,0.777588 20.9625,0.777588 9.58928,0.777588 1.69764,7.35396 1.69764,16.7156 c 0,10.7543 8.51056,13.617 17.48536,15.1643 8.588,1.5474 14.2359,2.7853 14.2359,8.5106 0,5.1838 -4.6421,8.0464 -11.0637,8.0464 z M 46.7266,35.5932 c 0,12.2243 7.8142,20.348 19.7291,20.348 10.1353,0 16.7117,-5.6479 18.2591,-14.7001 h -8.5106 c -1.0058,4.6422 -4.5648,7.5822 -9.7485,7.5822 -6.7311,0 -11.1412,-5.4932 -11.1412,-13.2301 0,-7.7369 4.4101,-13.0754 11.1412,-13.0754 5.029,0 8.5879,2.94 9.6711,7.4274 h 8.588 c -1.5474,-8.8974 -8.0464,-14.5453 -18.027,-14.5453 -12.0696,0 -19.9612,7.969 -19.9612,20.1933 z M 111.02,15.8637 v 7.8143 h -3.714 c -7.4271,0 -9.8255,5.8027 -9.8255,11.9148 v 19.8839 h -8.3558 v -39.613 h 7.4274 l 0.1612,5.9574 c 2.0116,-3.3268 5.9507,-5.9574 12.4497,-5.9574 z m 38.53,18.4142 c -0.232,-11.6053 -8.124,-18.878 -19.574,-18.878 -11.451,0 -19.265,8.2011 -19.265,20.348 0,12.147 7.891,20.1933 20.425,20.1933 9.749,0 16.325,-5.9574 17.718,-13.7716 h -8.356 c -1.161,4.41 -4.874,6.9632 -9.981,6.9632 -6.576,0 -10.677,-4.4101 -11.063,-11.2185 V 37.45 h 29.864 c 0.155,-1.0831 0.232,-2.1663 0.232,-3.1721 z M 130.285,22.131 c 5.803,0 10.058,3.3268 10.755,9.2069 h -21.277 c 0.619,-5.6479 5.184,-9.2069 10.522,-9.2069 z m 42.94,-6.7311 c 11.45,0 19.342,7.2727 19.574,18.878 0,1.0058 -0.077,2.089 -0.232,3.1721 h -29.865 v 0.4643 c 0.387,6.8084 4.488,11.2185 11.064,11.2185 5.107,0 8.82,-2.5532 9.981,-6.9632 h 8.356 c -1.393,7.8142 -7.969,13.7716 -17.718,13.7716 -12.534,0 -20.425,-8.0463 -20.425,-20.1933 0,-12.1469 7.814,-20.348 19.265,-20.348 z m 11.063,15.938 c -0.696,-5.8801 -4.951,-9.2069 -10.754,-9.2069 -5.338,0 -9.903,3.559 -10.522,9.2069 z M 234.03,55.477 V 33.659 c 0,-13.6944 -7.427,-18.2591 -15.938,-18.2591 -6.421,0 -10.857,3.1979 -13.333,6.2927 l -0.284,-5.8285 h -7.272 V 55.477 h 8.356 V 35.5158 c 0,-8.0464 3.945,-12.9206 10.599,-12.9206 6.267,0 9.439,4.0232 9.439,11.528 V 55.477 Z M 246.816,1.23057 V 55.3889 H 238.46 V 1.23057 Z M 268.705,46.3343 257.641,15.7735 h -8.898 l 15.474,39.9225 -1.625,3.7911 c -1.315,3.2495 -2.011,3.7451 -5.261,3.7451 h -4.59 v 6.5158 h 7.685 c 5.803,0 7.505,-1.7503 9.981,-8.172 l 17.949,-45.8025 h -8.897 z"
         fill="#000212"
         id="path1" /><path
         d="M 3.26772,64.597 H 21.789 v 3.3222 H 6.88062 v 9.3021 H 19.2974 v 3.3222 H 6.88062 v 9.8006 H 22.3289 v 3.3222 H 3.26772 Z M 31.9483,82.786 24.4319,72.4872 h 4.0697 l 5.6477,7.8487 5.7308,-7.8487 h 3.779 l -7.558,10.2988 8.0979,10.8803 h -4.0697 l -6.2292,-8.5132 -6.2291,8.5132 h -3.779 z m 16.3155,5.3571 V 75.6018 h -3.8205 v -3.1146 h 3.8205 v -5.9384 h 3.4053 v 5.9384 h 5.357 v 3.1146 h -5.357 v 12.4998 c 0,1.7857 0.6229,2.4501 2.3255,2.4501 h 3.696 v 3.1146 H 53.787 c -4.0697,0 -5.5232,-1.7857 -5.5232,-5.5232 z m 10.5746,-5.0664 c 0,-6.5198 4.0697,-10.8387 10.0497,-10.8387 5.8139,0 9.8836,3.779 10.0497,10.0497 0,0.4568 -0.0416,0.9551 -0.0831,1.4535 H 62.4098 v 0.2907 c 0.1246,4.1112 2.7408,6.852 6.6859,6.852 2.99,0 5.3156,-1.578 6.0215,-4.3189 h 3.4468 c -0.8305,4.2359 -4.3189,7.3504 -9.2191,7.3504 -6.3537,0 -10.5065,-4.3604 -10.5065,-10.8387 z m 3.779,-2.1594 h 12.7905 c -0.3322,-3.6544 -2.9484,-5.6893 -6.4783,-5.6893 -3.1145,0 -5.98,2.2425 -6.3122,5.6893 z m 30.588,-8.6793 c 4.7757,0 8.5546,2.6163 8.5546,9.6344 V 93.6663 H 98.3548 V 82.0801 c 0,-4.402 -2.0348,-6.7275 -5.7308,-6.7275 -3.9866,0 -6.3952,2.9485 -6.3952,7.7241 V 93.6663 H 82.8235 V 72.4872 h 2.9485 l 0.4568,2.8654 C 87.4746,73.733 89.634,72.238 93.2054,72.238 Z m 12.1486,14.4516 h 3.405 c 0.125,2.4917 2.367,4.3189 5.814,4.3189 2.949,0 5.025,-1.2874 5.025,-3.2392 0,-2.6577 -2.284,-2.9484 -5.398,-3.3222 -4.61,-0.5813 -8.389,-1.4534 -8.389,-5.8553 0,-3.8621 3.53,-6.4368 8.181,-6.3953 4.776,0.0415 8.222,2.3256 8.555,6.7275 h -3.406 c -0.249,-2.1595 -2.284,-3.8206 -5.149,-3.8206 -2.866,0 -4.817,1.2874 -4.817,3.2392 0,2.3255 2.201,2.5332 5.191,2.9069 4.734,0.5814 8.596,1.5781 8.596,6.2707 0,3.9451 -3.738,6.3952 -8.389,6.3952 -5.398,0 -9.136,-2.5747 -9.219,-7.2258 z m 23.174,-22.3833 c 1.245,0 2.2,0.9136 2.2,2.2009 0,1.2874 -0.955,2.201 -2.2,2.201 -1.246,0 -2.201,-0.9136 -2.201,-2.201 0,-1.2873 0.955,-2.2009 2.201,-2.2009 z m -1.703,8.1809 h 3.405 v 21.1791 h -3.405 z m 17.829,21.4282 c -6.187,0 -10.506,-4.4019 -10.506,-10.8387 0,-6.4367 4.319,-10.8387 10.506,-10.8387 6.188,0 10.507,4.402 10.507,10.8387 0,6.4368 -4.319,10.8387 -10.507,10.8387 z m 0,-3.0315 c 4.194,0 7.018,-3.2807 7.018,-7.8072 0,-4.5265 -2.824,-7.8072 -7.018,-7.8072 -4.194,0 -7.018,3.2807 -7.018,7.8072 0,4.5265 2.824,7.8072 7.018,7.8072 z M 169.447,72.238 c 4.776,0 8.555,2.6163 8.555,9.6344 v 11.7939 h -3.405 V 82.0801 c 0,-4.402 -2.035,-6.7275 -5.731,-6.7275 -3.987,0 -6.395,2.9485 -6.395,7.7241 v 10.5896 h -3.405 V 72.4872 h 2.948 l 0.457,2.8654 c 1.246,-1.6196 3.405,-3.1146 6.976,-3.1146 z"
         fill="#000212"
         id="path2" /></g><g
       style="fill:none"
       id="g2"
       transform="matrix(0.26458333,0,0,0.26458333,50.503491,48.131398)"><path
         fill-rule="evenodd"
         clip-rule="evenodd"
         d="m 13.555,26.2218 c 7.057,0 12.7777,-5.7208 12.7777,-12.7777 0,-7.05694 -5.7207,-12.777718 -12.7777,-12.777718 -7.05689,0 -12.777656,5.720778 -12.777656,12.777718 0,7.0569 5.720766,12.7777 12.777656,12.7777 z M 10.8884,8.88856 c 0,-1.46486 1.2018,-2.66665 2.6666,-2.66665 1.4649,0 2.6667,1.20179 2.6667,2.66665 h 3.3333 c 0.1768,2e-5 0.3464,0.07027 0.4714,0.19528 0.125,0.12502 0.1952,0.29458 0.1953,0.47139 v 2.78387 c 0,0.1069 -0.0257,0.2123 -0.075,0.3072 -0.0493,0.0949 -0.1206,0.1766 -0.2081,0.2381 -0.0874,0.0615 -0.1884,0.1011 -0.2944,0.1154 -0.106,0.0144 -0.2138,0.003 -0.3145,-0.0331 -0.1422,-0.0509 -0.2916,-0.0774 -0.4427,-0.0782 -0.7436,7e-4 -1.332,0.5895 -1.332,1.3334 0,0.7442 0.5891,1.3333 1.3333,1.3333 0.1511,-5e-4 0.3005,-0.0262 0.4427,-0.0768 0.1006,-0.0359 0.2083,-0.0471 0.3141,-0.0326 0.1058,0.0144 0.2066,0.0541 0.2939,0.1156 0.0873,0.0615 0.1585,0.1431 0.2077,0.2378 0.0492,0.0948 0.0749,0.2 0.075,0.3068 v 2.7825 c -10e-5,0.1768 -0.0703,0.3464 -0.1953,0.4714 -0.125,0.125 -0.2946,0.1953 -0.4714,0.1953 h -4.1172 c -0.1069,0 -0.2123,-0.0257 -0.3072,-0.075 -0.0949,-0.0493 -0.1765,-0.1206 -0.2381,-0.2081 -0.0615,-0.0874 -0.1011,-0.1884 -0.1154,-0.2944 -0.0144,-0.1059 -0.003,-0.2138 0.0331,-0.3144 0.051,-0.1423 0.0774,-0.2916 0.0782,-0.4428 -7e-4,-0.7436 -0.5895,-1.332 -1.3334,-1.332 -0.7438,0 -1.3326,0.5884 -1.3333,1.332 3e-4,0.1515 0.026,0.3014 0.0768,0.4441 0.0359,0.1005 0.0471,0.2082 0.0326,0.314 -0.0144,0.1058 -0.0541,0.2066 -0.1156,0.2939 -0.0615,0.0873 -0.143,0.1585 -0.2378,0.2077 -0.0948,0.0492 -0.2,0.0749 -0.3068,0.075 H 7.55508 c -0.17681,0 -0.34636,-0.0703 -0.47138,-0.1953 -0.12502,-0.125 -0.19527,-0.2946 -0.19528,-0.4714 v -2.7838 c -10e-6,-0.107 0.0257,-0.2123 0.07496,-0.3072 0.04926,-0.0949 0.12063,-0.1766 0.20809,-0.2382 0.08745,-0.0615 0.18842,-0.1011 0.29439,-0.1154 0.10597,-0.0143 0.21383,-0.0029 0.31448,0.0332 0.14223,0.0509 0.29163,0.0774 0.4427,0.0781 0.74365,-7e-4 1.33202,-0.5895 1.33202,-1.3333 0,-0.7443 -0.58905,-1.3334 -1.33332,-1.3334 -0.15103,5e-4 -0.30042,0.0262 -0.44271,0.0769 C 7.67846,13.0012 7.57074,13.0124 7.46495,12.998 7.35915,12.9835 7.25837,12.9439 7.17109,12.8824 7.08381,12.8209 7.01258,12.7393 6.96338,12.6445 6.91419,12.5497 6.88848,12.4445 6.88842,12.3378 V 9.55523 C 6.88843,9.37842 6.95868,9.20886 7.0837,9.08384 7.20872,8.95883 7.37827,8.88858 7.55508,8.88856 Z m 4,-0.0013 c -7e-4,-0.74363 -0.5895,-1.33202 -1.3334,-1.33202 -0.7438,0 -1.3326,0.58839 -1.3333,1.33202 3e-4,0.15148 0.026,0.3014 0.0768,0.44401 0.0359,0.10058 0.0471,0.20829 0.0326,0.31409 -0.0144,0.10579 -0.0541,0.20657 -0.1156,0.29385 -0.0615,0.08729 -0.143,0.15849 -0.2378,0.20769 -0.0948,0.0492 -0.2,0.0749 -0.3068,0.075 H 8.22174 v 1.3333 c 1.46485,0 2.66666,1.2018 2.66666,2.6667 0,1.4648 -1.20181,2.6666 -2.66666,2.6666 v 1.3333 h 2.66666 c 0,-1.4648 1.2018,-2.6666 2.6666,-2.6666 1.4649,0 2.6667,1.2018 2.6667,2.6666 h 2.6666 v -1.3333 c -1.4648,0 -2.6666,-1.2018 -2.6666,-2.6666 0,-1.4649 1.2018,-2.6667 2.6666,-2.6667 v -1.3333 h -3.4505 c -0.1069,0 -0.2123,-0.0257 -0.3072,-0.075 C 15.0357,10.0977 14.9541,10.0263 14.8925,9.93884 14.831,9.85139 14.7914,9.75042 14.7771,9.64445 14.7627,9.53848 14.7741,9.43062 14.8102,9.32997 14.8612,9.18776 14.8876,9.03844 14.8884,8.88726 Z"
         fill="#3253fc"
         id="path1-5" /></g><g
       style="fill:none"
       id="g3"
       transform="matrix(0.26458333,0,0,0.26458333,30.130012,30.685042)"><path
         fill-rule="evenodd"
         clip-rule="evenodd"
         d="m 3.55416,74.6833 16.53514,9.5432 c 0.7097,0.4028 1.6017,0.4412 2.3594,0 0.7577,-0.4316 1.1797,-1.2277 1.1797,-2.0429 0.0953,-2.7477 0.0235,-5.5901 -0.0487,-8.4505 C 23.2739,61.6267 22.9599,49.1955 35.272,42.2365 l 47.5528,-27.469 c 2.1474,-1.2381 4.7715,-1.3898 7.0398,-0.3702 0.3124,0.1716 0.5555,0.2974 0.7194,0.3702 -0.235,-0.137 -0.4751,-0.2604 -0.7194,-0.3702 -1.1287,-0.62 -3.1609,-1.8375 -5.6226,-3.3124 h -1e-4 C 76.6203,6.51863 64.8818,-0.514057 63.0959,0.0835266 61.9202,-1.12326 41.6088,11.004 26.8424,19.8206 h -10e-5 C 18.8412,24.5978 12.4681,28.403 11.6491,28.5884 4.71468,32.3769 -0.186383,40.865 0.00543933,48.7681 V 68.5354 C -0.0521074,70.9428 1.43452,73.5228 3.54456,74.6737 Z M 90.4305,38.247 c 0,0.8152 -0.422,1.6017 -1.1797,2.0429 v 0.0095 C 88.589,41.8064 79.0203,35.964 72.5732,32.0276 l -1e-4,-10e-5 c -2.9904,-1.8259 -5.3092,-3.2417 -5.756,-3.3237 L 84.858,18.2782 c 2.3499,-1.4674 5.6588,0.4508 5.5725,3.2226 z m -60.8939,83.252 c 0.4178,2.839 23.373,-10.981 38.4331,-20.048 7.0679,-4.2556 12.3969,-7.4639 12.8411,-7.4118 0.3831,-0.2211 0.7579,-0.455 1.1237,-0.7012 -4.8176,-2.8638 -8.046,-8.1209 -8.046,-14.132 0,-9.0732 7.3552,-16.4285 16.4284,-16.4285 0.038,0 0.0759,10e-5 0.1138,4e-4 v -3.0366 c 0.0575,-2.2923 -1.362,-4.7476 -3.3761,-5.841 L 73.8764,46.2946 c -0.3098,-0.1712 -0.6575,-0.3854 -1.0285,-0.6139 l -5e-4,-3e-4 -9e-4,-5e-4 -2e-4,-1e-4 c -2.2474,-1.3842 -5.3472,-3.2933 -6.0386,0.6243 -0.1115,1.8329 -0.0505,4.2214 0.0165,6.8475 v 3e-4 2e-4 2e-4 2e-4 3e-4 c 0.1808,7.0896 0.4058,15.9109 -2.5965,20.2079 -2.0011,4.9762 -16.4401,12.838 -27.0649,18.623 l -3e-4,2e-4 c -4.6518,2.5328 -8.5724,4.6676 -10.3977,5.9877 1.2234,1.5594 1.0518,6.1254 0.8747,10.8364 -0.2171,5.777 -0.4424,11.77 1.8875,12.7 z M 3.89883,111.361 27.5122,125 c -2.4841,-1.439 -3.8844,-4.038 -3.8844,-6.723 -0.1118,-0.873 -0.0627,-2.839 -0.0045,-5.171 0.1217,-4.873 0.2833,-11.347 -0.8971,-12.813 C 22.27,98.627 14.2699,94.2168 8.69676,91.1444 l -4.6e-4,-3e-4 h -1.3e-4 l -9.2e-4,-5e-4 -2.2e-4,-1e-4 C 6.18474,89.7596 4.16711,88.6473 3.55355,88.1797 2.0957,87.2397 -0.0814872,88.4866 0.0144241,90.2226 v 14.4054 c 0,2.686 1.3907159,5.285 3.8844059,6.724 z"
         fill="url(#paint0_linear_1055_114)"
         id="path1-3"
         style="fill:url(#paint0_linear_1055_114)" /></g></g></svg>

<svg width="289" height="103" viewBox="0 0 289 103" fill="none" xmlns="http://www.w3.org/2000/svg">
<path fill-rule="evenodd" clip-rule="evenodd" d="M22.3552 48.4369C14.773 48.4369 9.74402 44.1816 9.27981 37.8374L0.537109 37.6826C0.769216 48.3596 9.20244 55.9417 22.2778 55.9417C33.9605 55.9417 42.3164 49.0559 42.3164 39.4621C42.3938 28.7852 33.6511 25.9225 24.6763 24.2978C16.1657 22.8278 10.5951 21.6672 10.5951 16.0967C10.5951 10.9903 14.8504 8.28239 20.9625 8.28239C27.4615 8.28239 32.0263 10.784 32.6453 16.2772H37.0166H41.388C40.9237 6.52869 32.3358 0.777588 20.9625 0.777588C9.58928 0.777588 1.69764 7.35396 1.69764 16.7156C1.69764 27.4699 10.2082 30.3326 19.183 31.8799C27.771 33.4273 33.4189 34.6652 33.4189 40.3905C33.4189 45.5743 28.7768 48.4369 22.3552 48.4369ZM46.7266 35.5932C46.7266 47.8175 54.5408 55.9412 66.4557 55.9412C76.591 55.9412 83.1674 50.2933 84.7148 41.2411H76.2042C75.1984 45.8833 71.6394 48.8233 66.4557 48.8233C59.7246 48.8233 55.3145 43.3301 55.3145 35.5932C55.3145 27.8563 59.7246 22.5178 66.4557 22.5178C71.4847 22.5178 75.0436 25.4578 76.1268 29.9452H84.7148C83.1674 21.0478 76.6684 15.3999 66.6878 15.3999C54.6182 15.3999 46.7266 23.3689 46.7266 35.5932ZM111.02 15.8637V23.678H107.306C99.8789 23.678 97.4805 29.4807 97.4805 35.5928V55.4767H89.1247V15.8637H96.5521L96.7133 21.8211C98.7249 18.4943 102.664 15.8637 109.163 15.8637H111.02ZM149.55 34.2779C149.318 22.6726 141.426 15.3999 129.976 15.3999C118.525 15.3999 110.711 23.601 110.711 35.7479C110.711 47.8949 118.602 55.9412 131.136 55.9412C140.885 55.9412 147.461 49.9838 148.854 42.1696H140.498C139.337 46.5796 135.624 49.1328 130.517 49.1328C123.941 49.1328 119.84 44.7227 119.454 37.9143V37.45H149.318C149.473 36.3669 149.55 35.2837 149.55 34.2779ZM130.285 22.131C136.088 22.131 140.343 25.4578 141.04 31.3379H119.763C120.382 25.69 124.947 22.131 130.285 22.131ZM173.225 15.3999C184.675 15.3999 192.567 22.6726 192.799 34.2779C192.799 35.2837 192.722 36.3669 192.567 37.45H162.702V37.9143C163.089 44.7227 167.19 49.1328 173.766 49.1328C178.873 49.1328 182.586 46.5796 183.747 42.1696H192.103C190.71 49.9838 184.134 55.9412 174.385 55.9412C161.851 55.9412 153.96 47.8949 153.96 35.7479C153.96 23.601 161.774 15.3999 173.225 15.3999ZM184.288 31.3379C183.592 25.4578 179.337 22.131 173.534 22.131C168.196 22.131 163.631 25.69 163.012 31.3379H184.288ZM234.03 55.477V33.659C234.03 19.9646 226.603 15.3999 218.092 15.3999C211.671 15.3999 207.235 18.5978 204.759 21.6926L204.475 15.8641H197.203V55.477H205.559V35.5158C205.559 27.4694 209.504 22.5952 216.158 22.5952C222.425 22.5952 225.597 26.6184 225.597 34.1232V55.477H234.03ZM246.816 1.23057V55.3889H238.46V1.23057H246.816ZM268.705 46.3343L257.641 15.7735H248.743L264.217 55.696L262.592 59.4871C261.277 62.7366 260.581 63.2322 257.331 63.2322H252.741V69.748H260.426C266.229 69.748 267.931 67.9977 270.407 61.576L288.356 15.7735H279.459L268.705 46.3343Z" fill="#000212"/>
<path d="M3.26772 64.597H21.789V67.9192H6.88062V77.2213H19.2974V80.5435H6.88062V90.3441H22.3289V93.6663H3.26772V64.597ZM31.9483 82.786L24.4319 72.4872H28.5016L34.1493 80.3359L39.8801 72.4872H43.6591L36.1011 82.786L44.199 93.6663H40.1293L33.9001 85.1531L27.671 93.6663H23.892L31.9483 82.786ZM48.2638 88.1431V75.6018H44.4433V72.4872H48.2638V66.5488H51.6691V72.4872H57.0261V75.6018H51.6691V88.1016C51.6691 89.8873 52.292 90.5517 53.9946 90.5517H57.6906V93.6663H53.787C49.7173 93.6663 48.2638 91.8806 48.2638 88.1431ZM58.8384 83.0767C58.8384 76.5569 62.9081 72.238 68.8881 72.238C74.702 72.238 78.7717 76.017 78.9378 82.2877C78.9378 82.7445 78.8962 83.2428 78.8547 83.7412H62.4098V84.0319C62.5344 88.1431 65.1506 90.8839 69.0957 90.8839C72.0857 90.8839 74.4113 89.3059 75.1172 86.565H78.564C77.7335 90.8009 74.2451 93.9154 69.3449 93.9154C62.9912 93.9154 58.8384 89.555 58.8384 83.0767ZM62.6174 80.9173H75.4079C75.0757 77.2629 72.4595 75.228 68.9296 75.228C65.8151 75.228 62.9496 77.4705 62.6174 80.9173ZM93.2054 72.238C97.9811 72.238 101.76 74.8543 101.76 81.8724V93.6663H98.3548V82.0801C98.3548 77.6781 96.32 75.3526 92.624 75.3526C88.6374 75.3526 86.2288 78.3011 86.2288 83.0767V93.6663H82.8235V72.4872H85.772L86.2288 75.3526C87.4746 73.733 89.634 72.238 93.2054 72.238ZM105.354 86.6896H108.759C108.884 89.1813 111.126 91.0085 114.573 91.0085C117.522 91.0085 119.598 89.7211 119.598 87.7693C119.598 85.1116 117.314 84.8209 114.2 84.4471C109.59 83.8658 105.811 82.9937 105.811 78.5918C105.811 74.7297 109.341 72.155 113.992 72.1965C118.768 72.238 122.214 74.5221 122.547 78.924H119.141C118.892 76.7645 116.857 75.1034 113.992 75.1034C111.126 75.1034 109.175 76.3908 109.175 78.3426C109.175 80.6681 111.376 80.8758 114.366 81.2495C119.1 81.8309 122.962 82.8276 122.962 87.5202C122.962 91.4653 119.224 93.9154 114.573 93.9154C109.175 93.9154 105.437 91.3407 105.354 86.6896ZM128.528 64.3063C129.773 64.3063 130.728 65.2199 130.728 66.5072C130.728 67.7946 129.773 68.7082 128.528 68.7082C127.282 68.7082 126.327 67.7946 126.327 66.5072C126.327 65.2199 127.282 64.3063 128.528 64.3063ZM126.825 72.4872H130.23V93.6663H126.825V72.4872ZM144.654 93.9154C138.467 93.9154 134.148 89.5135 134.148 83.0767C134.148 76.64 138.467 72.238 144.654 72.238C150.842 72.238 155.161 76.64 155.161 83.0767C155.161 89.5135 150.842 93.9154 144.654 93.9154ZM144.654 90.8839C148.848 90.8839 151.672 87.6032 151.672 83.0767C151.672 78.5502 148.848 75.2695 144.654 75.2695C140.46 75.2695 137.636 78.5502 137.636 83.0767C137.636 87.6032 140.46 90.8839 144.654 90.8839ZM169.447 72.238C174.223 72.238 178.002 74.8543 178.002 81.8724V93.6663H174.597V82.0801C174.597 77.6781 172.562 75.3526 168.866 75.3526C164.879 75.3526 162.471 78.3011 162.471 83.0767V93.6663H159.066V72.4872H162.014L162.471 75.3526C163.717 73.733 165.876 72.238 169.447 72.238Z" fill="#000212"/>
</svg>
